svg/24/paste.svg

<svg width="24" height="24" viewBox="0 0 24 24" fill="currentColor" xmlns="http://www.w3.org/2000/svg"><path fill-rule="evenodd" clip-rule="evenodd" d="M6.06301 3C6.28503 2.13739 7.06808 1.5 8 1.5H11C11.9319 1.5 12.715 2.13739 12.937 3H14C15.1046 3 16 3.89543 16 5V5.75C16 6.16421 15.6642 6.5 15.25 6.5C14.8358 6.5 14.5 6.16421 14.5 5.75V5C14.5 4.72386 14.2761 4.5 14 4.5H12.937C12.715 5.36261 11.9319 6 11 6H8C7.06808 6 6.28503 5.36261 6.06301 4.5H5C4.72386 4.5 4.5 4.72386 4.5 5V14C4.5 14.2761 4.72386 14.5 5 14.5H5.75C6.16421 14.5 6.5 14.8358 6.5 15.25C6.5 15.6642 6.16421 16 5.75 16H5C3.89543 16 3 15.1046 3 14V5C3 3.89543 3.89543 3 5 3H6.06301ZM8 3H11C11.2761 3 11.5 3.22386 11.5 3.5V4C11.5 4.27614 11.2761 4.5 11 4.5H8C7.72386 4.5 7.5 4.27614 7.5 4V3.5C7.5 3.22386 7.72386 3 8 3Z"/><path fill-rule="evenodd" clip-rule="evenodd" d="M10 8C8.89543 8 8 8.89543 8 10V19C8 20.1046 8.89543 21 10 21H19C20.1046 21 21 20.1046 21 19V10C21 8.89543 20.1046 8 19 8H10ZM10 9.5C9.72386 9.5 9.5 9.72386 9.5 10V19C9.5 19.2761 9.72386 19.5 10 19.5H19C19.2761 19.5 19.5 19.2761 19.5 19V10C19.5 9.72386 19.2761 9.5 19 9.5H10Z"/></svg>

<svg xmlns="http://www.w3.org/2000/svg" width="24" height="24" fill="currentColor" viewBox="0 0 24 24">
  <path fill-rule="evenodd" d="M6.063 3A2 2 0 0 1 8 1.5h3A2 2 0 0 1 12.937 3H14a2 2 0 0 1 2 2v.75a.75.75 0 0 1-1.5 0V5a.5.5 0 0 0-.5-.5h-1.063A2 2 0 0 1 11 6H8a2 2 0 0 1-1.937-1.5H5a.5.5 0 0 0-.5.5v9a.5.5 0 0 0 .5.5h.75a.75.75 0 0 1 0 1.5H5a2 2 0 0 1-2-2V5a2 2 0 0 1 2-2h1.063ZM8 3h3a.5.5 0 0 1 .5.5V4a.5.5 0 0 1-.5.5H8a.5.5 0 0 1-.5-.5v-.5A.5.5 0 0 1 8 3Z" clip-rule="evenodd"/>
  <path fill-rule="evenodd" d="M10 8a2 2 0 0 0-2 2v9a2 2 0 0 0 2 2h9a2 2 0 0 0 2-2v-9a2 2 0 0 0-2-2h-9Zm0 1.5a.5.5 0 0 0-.5.5v9a.5.5 0 0 0 .5.5h9a.5.5 0 0 0 .5-.5v-9a.5.5 0 0 0-.5-.5h-9Z" clip-rule="evenodd"/>
</svg>
